public/icon/16/vector-square.svg

<svg width="16" height="16" viewBox="0 0 16 16" fill="none" xmlns="http://www.w3.org/2000/svg">
<path d="M3.99963 13C3.44735 13 3 12.5523 3 12V4C3 3.44772 3.44772 3 4 3C6.66667 3 9.33334 2.99998 12 3C12.5523 3 13 3.44771 13 4V12C13 12.5523 12.5562 13 12.0039 13C10.1031 13 5.97225 13 3.99963 13Z" fill="white" stroke="#092E24" stroke-width="2" stroke-miterlimit="10" stroke-linecap="round" stroke-linejoin="round"/>
<path d="M4 2H2V4H4V2Z" fill="white" stroke="#092E24" stroke-width="2" stroke-miterlimit="10" stroke-linecap="round" stroke-linejoin="round"/>
<path d="M4 12H2V14H4V12Z" fill="white" stroke="#092E24" stroke-width="2" stroke-miterlimit="10" stroke-linecap="round" stroke-linejoin="round"/>
<path d="M14 2H12V4H14V2Z" fill="white" stroke="#092E24" stroke-width="2" stroke-miterlimit="10" stroke-linecap="round" stroke-linejoin="round"/>
<path d="M14 12H12V14H14V12Z" fill="white" stroke="#092E24" stroke-width="2" stroke-miterlimit="10" stroke-linecap="round" stroke-linejoin="round"/>
</svg>

<svg viewBox="0 0 16 16">
  <g class="vector-square">
    <path d="M4 13a1 1 0 0 1-1-1V4a1 1 0 0 1 1-1h8a1 1 0 0 1 1 1v8c0 .552-.444 1-.996 1H4Z" class="fill-(--icon-fill) stroke-current stroke-2 sl-r"/>
    <path d="M4 2H2v2h2V2Z" class="fill-(--icon-fill) stroke-current stroke-2 sl-r"/>
    <path d="M4 12H2v2h2v-2Z" class="fill-(--icon-fill) stroke-current stroke-2 sl-r"/>
    <path d="M14 2h-2v2h2V2Z" class="fill-(--icon-fill) stroke-current stroke-2 sl-r"/>
    <path d="M14 12h-2v2h2v-2Z" class="fill-(--icon-fill) stroke-current stroke-2 sl-r"/>
  </g>
</svg>
